svg/k8s-clusterrole.svg

<?xml version="1.0" encoding="UTF-8"?>
<svg xmlns="http://www.w3.org/2000/svg" xmlns:xlink="http://www.w3.org/1999/xlink" width="32.978001" height="32" viewBox="0 0 32.978001 32">
<path fill-rule="nonzero" fill="rgb(19.607843%, 42.352941%, 89.803922%)" fill-opacity="1" d="M 16.378906 0.847656 C 16.105469 0.863281 15.835938 0.933594 15.585938 1.046875 L 4.722656 6.238281 C 4.15625 6.507812 3.742188 7.023438 3.601562 7.636719 L 0.921875 19.292969 C 0.78125 19.902344 0.925781 20.546875 1.320312 21.035156 L 8.839844 30.382812 C 9.234375 30.871094 9.832031 31.15625 10.460938 31.15625 L 22.515625 31.152344 C 23.148438 31.152344 23.746094 30.871094 24.140625 30.378906 L 31.65625 21.03125 C 32.050781 20.542969 32.199219 19.902344 32.058594 19.289062 L 29.375 7.632812 C 29.234375 7.019531 28.820312 6.503906 28.25 6.234375 L 17.386719 1.046875 C 17.074219 0.898438 16.726562 0.828125 16.378906 0.847656 M 16.378906 0.847656 "/>
<path fill-rule="nonzero" fill="rgb(100%, 100%, 100%)" fill-opacity="1" d="M 16.375 0.00390625 C 16.082031 0.0195312 15.796875 0.0898438 15.535156 0.214844 L 4.070312 5.695312 C 3.46875 5.980469 3.03125 6.523438 2.882812 7.167969 L 0.0546875 19.472656 C -0.078125 20.046875 0.03125 20.648438 0.351562 21.140625 C 0.390625 21.203125 0.433594 21.257812 0.476562 21.3125 L 8.414062 31.183594 C 8.832031 31.699219 9.464844 32 10.128906 32 L 22.851562 31.996094 C 23.519531 31.996094 24.152344 31.695312 24.566406 31.179688 L 32.5 21.3125 C 32.914062 20.796875 33.070312 20.117188 32.921875 19.472656 L 30.089844 7.164062 C 29.9375 6.519531 29.503906 5.976562 28.90625 5.691406 L 17.4375 0.214844 C 17.105469 0.0585938 16.742188 -0.015625 16.375 0.00390625 M 16.378906 0.847656 C 16.726562 0.828125 17.074219 0.898438 17.386719 1.046875 L 28.25 6.234375 C 28.816406 6.507812 29.230469 7.019531 29.375 7.632812 L 32.058594 19.289062 C 32.199219 19.902344 32.050781 20.542969 31.65625 21.03125 L 24.140625 30.378906 C 23.746094 30.871094 23.148438 31.15625 22.515625 31.152344 L 10.460938 31.15625 C 9.828125 31.15625 9.230469 30.871094 8.839844 30.382812 L 1.320312 21.035156 C 0.925781 20.546875 0.78125 19.902344 0.921875 19.292969 L 3.601562 7.636719 C 3.742188 7.023438 4.15625 6.507812 4.722656 6.238281 L 15.585938 1.046875 C 15.832031 0.929688 16.105469 0.859375 16.378906 0.847656 M 17.265625 16.558594 C 17.265625 16.804688 17.167969 17.039062 16.992188 17.210938 C 16.820312 17.382812 16.585938 17.480469 16.339844 17.476562 C 16 17.492188 15.683594 17.320312 15.507812 17.03125 C 15.335938 16.738281 15.335938 16.378906 15.507812 16.085938 C 15.683594 15.796875 16 15.625 16.339844 15.640625 C 16.851562 15.640625 17.265625 16.050781 17.265625 16.558594 M 16.492188 9.113281 L 10.808594 11.625 L 10.808594 15.375 C 10.808594 18.851562 13.230469 22.097656 16.492188 22.886719 C 19.746094 22.097656 22.171875 18.851562 22.171875 15.375 L 22.171875 11.625 Z M 19.5 19.203125 L 13.480469 19.203125 L 13.480469 14.148438 L 14.34375 14.148438 L 14.34375 13.597656 C 14.34375 12.40625 15.316406 11.441406 16.519531 11.441406 C 17.71875 11.441406 18.691406 12.40625 18.691406 13.597656 L 18.691406 14.148438 L 19.5 14.148438 Z M 16.449219 12.242188 C 15.730469 12.238281 15.148438 12.820312 15.144531 13.539062 L 15.144531 14.078125 L 17.753906 14.078125 L 17.753906 13.527344 C 17.746094 12.8125 17.164062 12.238281 16.449219 12.242188 M 16.449219 12.242188 "/>
</svg>

<svg role="img" viewBox="0 0 32.978 32" xmlns="http://www.w3.org/2000/svg"><path d="M16.379.848a2.1 2.1 0 0 0-.793.199L4.723 6.238a2.06 2.06 0 0 0-1.121 1.399L.922 19.293c-.14.61.004 1.254.398 1.742l7.52 9.348c.394.488.992.773 1.62.773l12.056-.004c.632 0 1.23-.28 1.625-.773l7.515-9.348a2.04 2.04 0 0 0 .403-1.742L29.375 7.633a2.06 2.06 0 0 0-1.125-1.399L17.387 1.047a2.1 2.1 0 0 0-1.008-.2m0 0" fill="rgb(19.607843%, 42.352942%, 89.803922%)"/><path d="M16.375.004a2.2 2.2 0 0 0-.84.21L4.07 5.696a2.17 2.17 0 0 0-1.187 1.473L.055 19.473a2.16 2.16 0 0 0 .297 1.668q.06.091.125.172l7.937 9.87a2.21 2.21 0 0 0 1.715.817l12.723-.004c.668 0 1.3-.3 1.714-.816l7.934-9.867c.414-.516.57-1.196.422-1.84L30.09 7.164a2.19 2.19 0 0 0-1.184-1.473L17.438.215a2.2 2.2 0 0 0-1.063-.211m.004.844c.348-.02.695.05 1.008.199L28.25 6.234c.566.274.98.786 1.125 1.399l2.684 11.656a2.04 2.04 0 0 1-.403 1.742l-7.515 9.348a2.07 2.07 0 0 1-1.625.773l-12.055.004c-.633 0-1.23-.285-1.621-.773l-7.52-9.348a2.04 2.04 0 0 1-.398-1.742l2.68-11.656a2.06 2.06 0 0 1 1.12-1.399l10.864-5.191c.246-.117.52-.188.793-.2m.887 15.712a.9.9 0 0 1-.274.652.9.9 0 0 1-.652.266.92.92 0 0 1-.832-.446.93.93 0 0 1 0-.945.92.92 0 0 1 .832-.445c.512 0 .926.41.926.918m-.774-7.446-5.683 2.512v3.75c0 3.477 2.421 6.723 5.683 7.512 3.254-.79 5.68-4.035 5.68-7.512v-3.75Zm3.008 10.09h-6.02v-5.055h.864v-.55c0-1.192.972-2.157 2.176-2.157 1.199 0 2.171.965 2.171 2.157v.55h.809Zm-3.05-6.96a1.3 1.3 0 0 0-1.305 1.296v.54h2.609v-.552a1.303 1.303 0 0 0-1.305-1.285m0 0" fill="rgb(100%, 100%, 100%)"/></svg>
